X:5014
T:Excuse Me
R:Jig
C:Trad. Playford 1686
O:England
Z:Paul Hardy's Session Tunebook 2022 (see www.paulhardy.net). Creative Commons cc by-nc-sa licenced.
M:6/8
L:1/8
Q:3/8=100
K:Em
"Em"E2E E2e|"Bm"d2d B2d|"G"dBd ABG|"D"F3 D3|
"G"ded "D7"cdc|"G"BcB "D7"AGF|"Em"G>FE "D"F2D|"Em"E3 E3:|
|:"Em"G2A BGE|G2A BGE|G2A B2e|"Bm"d3 B3:|
|:"D"FGA ABA|d2A F2F|"Em"GAB BcB|"Am"e2d c>BA|
"G"d2d d>cB|"D"A>GF "Em"G2A|"C"GFE "D"FD2|"Em"E3 E3:|

